X: 18958
T: Inis Bearachain, The
R: jig
M: 6/8
K: Amajor
AAA cBA|efA Acc|dff ecA|BAB cAF|
ABA ABc|BAF FEF|Ace faf|ecB AFE|
ABA ABc|BAF FEF|ABA Bce|fff ecB|
ABA ABc|BAF FEF|Ace faf|ecB ABc||
ecB Ace|faf fec|ABB Bce|eff fga|
fec ecB|AcA BAF|EEE ecA|BcB ABc|
ecB Ace|fba fec|ABB Bce|eff fga|
fec ecB|A (3cBA BAF|EEE ecA|BcB AFE|

